X:1
T:011 - Ao Deus Trino
T:Letra: William Edwin Entzminger (1859-1930)
T:Música: Luther Orlando Emerson (1820-1915)
M:2/2
L:1/4
K:Bb
V:1
"Bb"F2 GF | B2 F2 | (GF) (B3/c/) | d3 z | "F"c2 cd | c2 c2 | "F7"dc "Bb"B2 | "Gm"B2 BG | B2 c2 | "F"cd c2 | "Bb"F2 GF | (B3/c/ d2) | "F7"c2 dc | "Bb"B3 z |]
w: 1.~Ó Deus, bom Pai e Ben_fei_tor, A Ti ren-de-mos, com ar-dor, Lou-vor le-al sem fim, Se-nhor, De to-dos nós__ Sus-ten-ta-dor.  
w: 2.~E Tu, Deus Fi-lho,ó bom_ Je_sus, Por nós so-fres-te nu-ma cruz; De Ti nos vem a cla-ra luz, Que nos-sos pés__ aos céus con-duz.  
w: 3.~Tu, Deus, Es-pí-ri-to_ ve_raz, Oh! Nos-sas al-mas sa-tis-faz Com go-zo, com di-vi-na paz, Eas nos-sas a__fli-ções des-faz.  
w: 4.~Ó in-fi-ni-toeex-cel_so_ Deus, Am-pa-ra-nos, em-bo-ra réus, Com bên-çãos, lá dos al-tos céus, A to-dos nós,__ os fi-lhos teus.          
W: 
W: 
W: 1. Ó Deus, bom Pai e Benfeitor,
W: A Ti rendemos, com ardor,
W: Louvor leal sem fim, Senhor,
W: De todos nós Sustentador.
W: 
W: 2. E Tu, Deus Filho, ó bom Jesus,
W: Por nós sofreste numa cruz;
W: De Ti nos vem a clara luz,
W: Que nossos pés aos céus conduz.
W: 
W: 
W: 
W: 3. Tu, Deus, Espírito veraz,
W: Oh! Nossas almas satisfaz
W: Com gozo, com divina paz,
W: E as nossas aflições desfaz.
W: 
W: 4. Ó infinito e excelso Deus,
W: Ampara-nos, embora réus,
W: Com bênçãos, lá dos altos céus,
W: A todos nós, os filhos teus.
W:         
W: 				         
W:           





